images/16758328.svg

<?xml version="1.0" encoding="UTF-8"?>
<svg xmlns="http://www.w3.org/2000/svg" xmlns:xlink="http://www.w3.org/1999/xlink" width="300pt" height="300pt" viewBox="0 0 300 300" version="1.1">
<defs>
<g>
<symbol overflow="visible" id="glyph0-0">
<path style="stroke:none;" d="M 0.453125 1.59375 L 0.453125 -6.34375 L 4.953125 -6.34375 L 4.953125 1.59375 Z M 0.953125 1.09375 L 4.453125 1.09375 L 4.453125 -5.84375 L 0.953125 -5.84375 Z M 0.953125 1.09375 "/>
</symbol>
<symbol overflow="visible" id="glyph0-1">
<path style="stroke:none;" d="M 3.546875 -5.953125 C 2.898438 -5.953125 2.382812 -5.710938 2 -5.234375 C 1.625 -4.753906 1.4375 -4.101562 1.4375 -3.28125 C 1.4375 -2.445312 1.625 -1.789062 2 -1.3125 C 2.382812 -0.832031 2.898438 -0.59375 3.546875 -0.59375 C 4.191406 -0.59375 4.703125 -0.832031 5.078125 -1.3125 C 5.453125 -1.789062 5.640625 -2.445312 5.640625 -3.28125 C 5.640625 -4.101562 5.453125 -4.753906 5.078125 -5.234375 C 4.703125 -5.710938 4.191406 -5.953125 3.546875 -5.953125 Z M 3.546875 -6.6875 C 4.460938 -6.6875 5.195312 -6.375 5.75 -5.75 C 6.300781 -5.132812 6.578125 -4.3125 6.578125 -3.28125 C 6.578125 -2.238281 6.300781 -1.410156 5.75 -0.796875 C 5.195312 -0.179688 4.460938 0.125 3.546875 0.125 C 2.617188 0.125 1.878906 -0.179688 1.328125 -0.796875 C 0.773438 -1.410156 0.5 -2.238281 0.5 -3.28125 C 0.5 -4.3125 0.773438 -5.132812 1.328125 -5.75 C 1.878906 -6.375 2.617188 -6.6875 3.546875 -6.6875 Z M 3.546875 -6.6875 "/>
</symbol>
<symbol overflow="visible" id="glyph0-2">
<path style="stroke:none;" d="M 0.890625 -6.5625 L 2.078125 -6.5625 L 4.984375 -1.078125 L 4.984375 -6.5625 L 5.84375 -6.5625 L 5.84375 0 L 4.65625 0 L 1.75 -5.484375 L 1.75 0 L 0.890625 0 Z M 0.890625 -6.5625 "/>
</symbol>
<symbol overflow="visible" id="glyph0-3">
<path style="stroke:none;" d="M 0.890625 -6.5625 L 1.765625 -6.5625 L 1.765625 -3.875 L 5 -3.875 L 5 -6.5625 L 5.890625 -6.5625 L 5.890625 0 L 5 0 L 5 -3.125 L 1.765625 -3.125 L 1.765625 0 L 0.890625 0 Z M 0.890625 -6.5625 "/>
</symbol>
</g>
</defs>
<g id="surface47745">
<rect x="0" y="0" width="300" height="300" style="fill:rgb(100%,100%,100%);fill-opacity:1;stroke:none;"/>
<path style=" stroke:none;fill-rule:nonzero;fill:rgb(0%,0%,0%);fill-opacity:1;" d="M 88.773438 196.667969 L 65.285156 207.433594 L 70.390625 214.824219 Z M 88.773438 196.667969 "/>
<path style="fill:none;stroke-width:1.2;stroke-linecap:butt;stroke-linejoin:miter;stroke:rgb(0%,0%,0%);stroke-opacity:1;stroke-miterlimit:10;" d="M 88.773438 196.667969 L 106.484375 214.933594 "/>
<path style="fill:none;stroke-width:1.2;stroke-linecap:butt;stroke-linejoin:miter;stroke:rgb(0%,0%,0%);stroke-opacity:1;stroke-miterlimit:10;" d="M 77.953125 173.636719 L 88.773438 196.667969 "/>
<path style="fill:none;stroke-width:1.2;stroke-linecap:butt;stroke-linejoin:miter;stroke:rgb(0%,0%,0%);stroke-opacity:1;stroke-miterlimit:10;" d="M 106.484375 214.933594 L 129.164062 226.460938 "/>
<path style="fill:none;stroke-width:1.2;stroke-linecap:butt;stroke-linejoin:miter;stroke:rgb(0%,0%,0%);stroke-opacity:1;stroke-miterlimit:10;" d="M 129.164062 226.460938 L 154.363281 229.996094 "/>
<path style="fill:none;stroke-width:1.2;stroke-linecap:butt;stroke-linejoin:miter;stroke:rgb(0%,0%,0%);stroke-opacity:1;stroke-miterlimit:10;" d="M 154.363281 229.996094 L 179.339844 225.160156 "/>
<path style="fill:none;stroke-width:1.2;stroke-linecap:butt;stroke-linejoin:miter;stroke:rgb(0%,0%,0%);stroke-opacity:1;stroke-miterlimit:10;" d="M 176.535156 226.207031 L 180.976562 238.128906 "/>
<path style="fill:none;stroke-width:1.2;stroke-linecap:butt;stroke-linejoin:miter;stroke:rgb(100%,0%,0%);stroke-opacity:1;stroke-miterlimit:10;" d="M 180.976562 238.128906 L 185.417969 250.046875 "/>
<path style="fill:none;stroke-width:1.2;stroke-linecap:butt;stroke-linejoin:miter;stroke:rgb(0%,0%,0%);stroke-opacity:1;stroke-miterlimit:10;" d="M 182.144531 224.117188 L 186.585938 236.039062 "/>
<path style="fill:none;stroke-width:1.2;stroke-linecap:butt;stroke-linejoin:miter;stroke:rgb(100%,0%,0%);stroke-opacity:1;stroke-miterlimit:10;" d="M 186.585938 236.039062 L 191.027344 247.957031 "/>
<path style="fill:none;stroke-width:1.2;stroke-linecap:butt;stroke-linejoin:miter;stroke:rgb(0%,0%,0%);stroke-opacity:1;stroke-miterlimit:10;" d="M 179.339844 225.160156 L 190.367188 218.820312 "/>
<path style="fill:none;stroke-width:1.2;stroke-linecap:butt;stroke-linejoin:miter;stroke:rgb(100%,0%,0%);stroke-opacity:1;stroke-miterlimit:10;" d="M 190.367188 218.820312 L 201.398438 212.476562 "/>
<path style=" stroke:none;fill-rule:nonzero;fill:rgb(100%,100%,100%);fill-opacity:1;" d="M 184.222656 243.503906 L 192.222656 243.503906 L 192.222656 254.503906 L 184.222656 254.503906 Z M 184.222656 243.503906 "/>
<g style="fill:rgb(100%,0%,0%);fill-opacity:1;">
  <use xlink:href="#glyph0-1" x="184.222656" y="252.166992"/>
</g>
<path style="fill:none;stroke-width:1.2;stroke-linecap:butt;stroke-linejoin:miter;stroke:rgb(100%,0%,0%);stroke-opacity:1;stroke-miterlimit:10;" d="M 201.398438 212.476562 L 209.769531 202.898438 "/>
<path style="fill:none;stroke-width:1.2;stroke-linecap:butt;stroke-linejoin:miter;stroke:rgb(0%,0%,0%);stroke-opacity:1;stroke-miterlimit:10;" d="M 209.769531 202.898438 L 218.136719 193.316406 "/>
<path style=" stroke:none;fill-rule:nonzero;fill:rgb(100%,100%,100%);fill-opacity:1;" d="M 197.398438 206.976562 L 205.398438 206.976562 L 205.398438 217.976562 L 197.398438 217.976562 Z M 197.398438 206.976562 "/>
<g style="fill:rgb(100%,0%,0%);fill-opacity:1;">
  <use xlink:href="#glyph0-1" x="197.398438" y="215.639648"/>
</g>
<path style="fill:none;stroke-width:1.2;stroke-linecap:butt;stroke-linejoin:miter;stroke:rgb(0%,0%,0%);stroke-opacity:1;stroke-miterlimit:10;" d="M 218.136719 193.316406 L 227.753906 169.761719 "/>
<path style="fill:none;stroke-width:1.2;stroke-linecap:butt;stroke-linejoin:miter;stroke:rgb(0%,0%,0%);stroke-opacity:1;stroke-miterlimit:10;" d="M 227.753906 169.761719 L 229.195312 144.359375 "/>
<path style="fill:none;stroke-width:1;stroke-linecap:butt;stroke-linejoin:miter;stroke:rgb(0%,0%,0%);stroke-opacity:1;stroke-miterlimit:10;" d="M 227.753906 169.761719 L 227.753906 169.761719 M 230.519531 170.921875 L 230.75 169.902344 M 233.285156 172.078125 L 233.746094 170.046875 M 236.054688 173.238281 L 236.742188 170.1875 M 238.820312 174.398438 L 239.738281 170.332031 M 241.585938 175.558594 L 242.734375 170.472656 M 244.355469 176.71875 L 245.734375 170.613281 M 247.121094 177.878906 L 248.730469 170.757812 M 249.886719 179.035156 L 251.726562 170.898438 M 251.582031 179.746094 L 253.558594 170.988281 "/>
<path style="fill:none;stroke-width:1.2;stroke-linecap:butt;stroke-linejoin:miter;stroke:rgb(0%,0%,0%);stroke-opacity:1;stroke-miterlimit:10;" d="M 229.195312 144.359375 L 222.316406 119.863281 "/>
<path style=" stroke:none;fill-rule:nonzero;fill:rgb(0%,0%,0%);fill-opacity:1;" d="M 229.195312 144.359375 L 254.976562 146.066406 L 254.003906 137.140625 Z M 229.195312 144.359375 "/>
<path style="fill:none;stroke-width:1.2;stroke-linecap:butt;stroke-linejoin:miter;stroke:rgb(0%,0%,0%);stroke-opacity:1;stroke-miterlimit:10;" d="M 222.316406 119.863281 L 207.851562 98.929688 "/>
<path style="fill:none;stroke-width:1.2;stroke-linecap:butt;stroke-linejoin:miter;stroke:rgb(0%,0%,0%);stroke-opacity:1;stroke-miterlimit:10;" d="M 215.941406 121.171875 L 204.375 104.425781 "/>
<path style="fill:none;stroke-width:1.2;stroke-linecap:butt;stroke-linejoin:miter;stroke:rgb(0%,0%,0%);stroke-opacity:1;stroke-miterlimit:10;" d="M 207.851562 98.929688 L 187.375 83.828125 "/>
<path style="fill:none;stroke-width:1.2;stroke-linecap:butt;stroke-linejoin:miter;stroke:rgb(0%,0%,0%);stroke-opacity:1;stroke-miterlimit:10;" d="M 187.375 83.828125 L 163.105469 76.191406 "/>
<path style="fill:none;stroke-width:1.2;stroke-linecap:butt;stroke-linejoin:miter;stroke:rgb(0%,0%,0%);stroke-opacity:1;stroke-miterlimit:10;" d="M 166.070312 76.609375 L 167.839844 64.011719 "/>
<path style="fill:none;stroke-width:1.2;stroke-linecap:butt;stroke-linejoin:miter;stroke:rgb(100%,0%,0%);stroke-opacity:1;stroke-miterlimit:10;" d="M 167.839844 64.011719 L 169.609375 51.414062 "/>
<path style="fill:none;stroke-width:1.2;stroke-linecap:butt;stroke-linejoin:miter;stroke:rgb(0%,0%,0%);stroke-opacity:1;stroke-miterlimit:10;" d="M 160.140625 75.777344 L 161.910156 63.179688 "/>
<path style="fill:none;stroke-width:1.2;stroke-linecap:butt;stroke-linejoin:miter;stroke:rgb(100%,0%,0%);stroke-opacity:1;stroke-miterlimit:10;" d="M 161.910156 63.179688 L 163.679688 50.578125 "/>
<path style="fill:none;stroke-width:1.2;stroke-linecap:butt;stroke-linejoin:miter;stroke:rgb(0%,0%,0%);stroke-opacity:1;stroke-miterlimit:10;" d="M 163.105469 76.191406 L 150.390625 76.519531 "/>
<path style="fill:none;stroke-width:1.2;stroke-linecap:butt;stroke-linejoin:miter;stroke:rgb(0%,0%,100%);stroke-opacity:1;stroke-miterlimit:10;" d="M 150.390625 76.519531 L 137.671875 76.851562 "/>
<path style=" stroke:none;fill-rule:nonzero;fill:rgb(100%,100%,100%);fill-opacity:1;" d="M 162.644531 45.496094 L 170.644531 45.496094 L 170.644531 56.496094 L 162.644531 56.496094 Z M 162.644531 45.496094 "/>
<g style="fill:rgb(100%,0%,0%);fill-opacity:1;">
  <use xlink:href="#glyph0-1" x="162.644531" y="54.15918"/>
</g>
<path style="fill:none;stroke-width:1.2;stroke-linecap:butt;stroke-linejoin:miter;stroke:rgb(0%,0%,100%);stroke-opacity:1;stroke-miterlimit:10;" d="M 137.671875 76.851562 L 125.75 81.292969 "/>
<path style="fill:none;stroke-width:1.2;stroke-linecap:butt;stroke-linejoin:miter;stroke:rgb(0%,0%,0%);stroke-opacity:1;stroke-miterlimit:10;" d="M 125.75 81.292969 L 113.828125 85.730469 "/>
<path style=" stroke:none;fill-rule:nonzero;fill:rgb(100%,100%,100%);fill-opacity:1;" d="M 130.671875 71.351562 L 144.671875 71.351562 L 144.671875 82.351562 L 130.671875 82.351562 Z M 130.671875 71.351562 "/>
<g style="fill:rgb(0%,0%,100%);fill-opacity:1;">
  <use xlink:href="#glyph0-2" x="130.671875" y="80.014648"/>
  <use xlink:href="#glyph0-3" x="137.649414" y="80.014648"/>
</g>
<path style="fill:none;stroke-width:1.2;stroke-linecap:butt;stroke-linejoin:miter;stroke:rgb(0%,0%,0%);stroke-opacity:1;stroke-miterlimit:10;" d="M 113.828125 85.730469 L 94.160156 101.875 "/>
<path style="fill:none;stroke-width:1;stroke-linecap:butt;stroke-linejoin:miter;stroke:rgb(0%,0%,0%);stroke-opacity:1;stroke-miterlimit:10;" d="M 113.828125 85.730469 L 113.828125 85.730469 M 112.808594 82.910156 L 111.902344 83.429688 M 111.785156 80.089844 L 109.980469 81.128906 M 110.765625 77.269531 L 108.054688 78.828125 M 109.746094 74.449219 L 106.128906 76.527344 M 108.722656 71.628906 L 104.203125 74.226562 M 107.703125 68.804688 L 102.28125 71.925781 M 106.683594 65.984375 L 100.355469 69.625 M 105.660156 63.164062 L 98.429688 67.324219 M 105.035156 61.4375 L 97.253906 65.914062 "/>
<path style="fill:none;stroke-width:1.2;stroke-linecap:butt;stroke-linejoin:miter;stroke:rgb(0%,0%,0%);stroke-opacity:1;stroke-miterlimit:10;" d="M 96.132812 99.621094 L 86.550781 91.25 "/>
<path style="fill:none;stroke-width:1.2;stroke-linecap:butt;stroke-linejoin:miter;stroke:rgb(100%,0%,0%);stroke-opacity:1;stroke-miterlimit:10;" d="M 86.550781 91.25 L 76.972656 82.878906 "/>
<path style="fill:none;stroke-width:1.2;stroke-linecap:butt;stroke-linejoin:miter;stroke:rgb(0%,0%,0%);stroke-opacity:1;stroke-miterlimit:10;" d="M 92.191406 104.128906 L 82.613281 95.757812 "/>
<path style="fill:none;stroke-width:1.2;stroke-linecap:butt;stroke-linejoin:miter;stroke:rgb(100%,0%,0%);stroke-opacity:1;stroke-miterlimit:10;" d="M 82.613281 95.757812 L 73.035156 87.386719 "/>
<path style="fill:none;stroke-width:1.2;stroke-linecap:butt;stroke-linejoin:miter;stroke:rgb(0%,0%,0%);stroke-opacity:1;stroke-miterlimit:10;" d="M 94.160156 101.875 L 87.480469 112.699219 "/>
<path style="fill:none;stroke-width:1.2;stroke-linecap:butt;stroke-linejoin:miter;stroke:rgb(100%,0%,0%);stroke-opacity:1;stroke-miterlimit:10;" d="M 87.480469 112.699219 L 80.800781 123.527344 "/>
<path style=" stroke:none;fill-rule:nonzero;fill:rgb(100%,100%,100%);fill-opacity:1;" d="M 67.003906 79.632812 L 75.003906 79.632812 L 75.003906 90.632812 L 67.003906 90.632812 Z M 67.003906 79.632812 "/>
<g style="fill:rgb(100%,0%,0%);fill-opacity:1;">
  <use xlink:href="#glyph0-1" x="67.003906" y="88.295898"/>
</g>
<path style="fill:none;stroke-width:1.2;stroke-linecap:butt;stroke-linejoin:miter;stroke:rgb(100%,0%,0%);stroke-opacity:1;stroke-miterlimit:10;" d="M 80.800781 123.527344 L 78 135.9375 "/>
<path style="fill:none;stroke-width:1.2;stroke-linecap:butt;stroke-linejoin:miter;stroke:rgb(0%,0%,0%);stroke-opacity:1;stroke-miterlimit:10;" d="M 78 135.9375 L 75.195312 148.34375 "/>
<path style=" stroke:none;fill-rule:nonzero;fill:rgb(100%,100%,100%);fill-opacity:1;" d="M 76.800781 118.027344 L 84.800781 118.027344 L 84.800781 129.027344 L 76.800781 129.027344 Z M 76.800781 118.027344 "/>
<g style="fill:rgb(100%,0%,0%);fill-opacity:1;">
  <use xlink:href="#glyph0-1" x="76.800781" y="126.69043"/>
</g>
<path style="fill:none;stroke-width:1.2;stroke-linecap:butt;stroke-linejoin:miter;stroke:rgb(0%,0%,0%);stroke-opacity:1;stroke-miterlimit:10;" d="M 75.195312 148.34375 L 77.953125 173.636719 "/>
<path style="fill:none;stroke-width:1;stroke-linecap:butt;stroke-linejoin:miter;stroke:rgb(0%,0%,0%);stroke-opacity:1;stroke-miterlimit:10;" d="M 77.953125 173.636719 L 77.953125 173.636719 M 74.96875 173.933594 L 75.25 174.9375 M 71.980469 174.234375 L 72.546875 176.242188 M 68.996094 174.53125 L 69.84375 177.542969 M 66.011719 174.828125 L 67.140625 178.84375 M 63.027344 175.125 L 64.4375 180.144531 M 60.039062 175.421875 L 61.734375 181.445312 M 57.054688 175.71875 L 59.03125 182.746094 M 54.070312 176.015625 L 56.328125 184.046875 M 52.242188 176.199219 L 54.671875 184.84375 "/>
<path style="fill:none;stroke-width:1.2;stroke-linecap:butt;stroke-linejoin:miter;stroke:rgb(100%,0%,0%);stroke-opacity:1;stroke-miterlimit:10;" d="M 53.457031 180.519531 L 44.355469 171.632812 "/>
<path style="fill:none;stroke-width:1.2;stroke-linecap:butt;stroke-linejoin:miter;stroke:rgb(0%,0%,0%);stroke-opacity:1;stroke-miterlimit:10;" d="M 44.355469 171.632812 L 35.25 162.75 "/>
<path style=" stroke:none;fill-rule:nonzero;fill:rgb(100%,100%,100%);fill-opacity:1;" d="M 49.457031 175.019531 L 57.457031 175.019531 L 57.457031 186.019531 L 49.457031 186.019531 Z M 49.457031 175.019531 "/>
<g style="fill:rgb(100%,0%,0%);fill-opacity:1;">
  <use xlink:href="#glyph0-1" x="49.457031" y="183.682617"/>
</g>
<path style="fill:none;stroke-width:1.2;stroke-linecap:butt;stroke-linejoin:miter;stroke:rgb(100%,0%,0%);stroke-opacity:1;stroke-miterlimit:10;" d="M 254.492188 141.601562 L 259.621094 129.960938 "/>
<path style="fill:none;stroke-width:1.2;stroke-linecap:butt;stroke-linejoin:miter;stroke:rgb(0%,0%,0%);stroke-opacity:1;stroke-miterlimit:10;" d="M 259.621094 129.960938 L 264.75 118.320312 "/>
<path style=" stroke:none;fill-rule:nonzero;fill:rgb(100%,100%,100%);fill-opacity:1;" d="M 250.492188 136.101562 L 258.492188 136.101562 L 258.492188 147.101562 L 250.492188 147.101562 Z M 250.492188 136.101562 "/>
<g style="fill:rgb(100%,0%,0%);fill-opacity:1;">
  <use xlink:href="#glyph0-1" x="250.492188" y="144.764648"/>
</g>
</g>
</svg>

<svg xmlns="http://www.w3.org/2000/svg" xmlns:xlink="http://www.w3.org/1999/xlink" width="300pt" height="300pt" viewBox="0 0 300 300"><defs><symbol overflow="visible"><path d="M.453 1.594v-7.938h4.5v7.938zm.5-.5h3.5v-6.938h-3.5zm0 0"/></symbol><symbol overflow="visible" id="a"><path d="M3.547-5.953c-.65 0-1.164.242-1.547.72-.375.48-.563 1.13-.563 1.952 0 .835.188 1.49.563 1.967.383.48.898.72 1.547.72.644 0 1.156-.24 1.53-.72.376-.476.564-1.132.564-1.968 0-.822-.187-1.474-.562-1.954-.375-.477-.887-.72-1.53-.72zm0-.734c.914 0 1.648.312 2.203.937.55.617.828 1.438.828 2.47 0 1.042-.277 1.87-.828 2.483-.555.617-1.29.922-2.203.922-.93 0-1.668-.305-2.22-.922C.774-1.41.5-2.237.5-3.28c0-1.033.273-1.853.828-2.47.55-.625 1.29-.938 2.22-.938zm0 0"/></symbol><symbol overflow="visible" id="b"><path d="M.89-6.563H2.08l2.906 5.485v-5.484h.86V0H4.656L1.75-5.484V0H.89zm0 0"/></symbol><symbol overflow="visible" id="c"><path d="M.89-6.563h.876v2.688H5v-2.688h.89V0H5v-3.125H1.766V0H.89zm0 0"/></symbol></defs><g><path fill="#fff" d="M0 0h300v300H0z"/><path d="M88.773 196.668l-23.488 10.766 5.106 7.39zm0 0"/><path d="M88.773 196.668l17.71 18.266M77.953 173.637l10.82 23.03M106.484 214.934l22.68 11.527M129.164 226.46l25.2 3.536M154.363 229.996l24.977-4.836M176.535 226.207l4.442 11.922" stroke-width="1.2" stroke="#000" stroke-miterlimit="10" fill="none"/><path d="M180.977 238.13l4.44 11.917" stroke-width="1.2" stroke="#f00" stroke-miterlimit="10" fill="none"/><path d="M182.145 224.117l4.44 11.922" stroke-width="1.2" stroke="#000" stroke-miterlimit="10" fill="none"/><path d="M186.586 236.04l4.44 11.917" stroke-width="1.2" stroke="#f00" stroke-miterlimit="10" fill="none"/><path d="M179.34 225.16l11.027-6.34" stroke-width="1.2" stroke="#000" stroke-miterlimit="10" fill="none"/><path d="M190.367 218.82l11.03-6.343" stroke-width="1.2" stroke="#f00" stroke-miterlimit="10" fill="none"/><path d="M184.223 243.504h8v11h-8zm0 0" fill="#fff"/><use xlink:href="#a" x="184.223" y="252.167" fill="#f00"/><path d="M201.398 212.477l8.372-9.58" stroke-width="1.2" stroke="#f00" stroke-miterlimit="10" fill="none"/><path d="M209.77 202.898l8.367-9.582" stroke-width="1.2" stroke="#000" stroke-miterlimit="10" fill="none"/><path d="M197.398 206.977h8v11h-8zm0 0" fill="#fff"/><use xlink:href="#a" x="197.398" y="215.64" fill="#f00"/><path d="M218.137 193.316l9.617-23.554M227.754 169.762l1.44-25.403" stroke-width="1.2" stroke="#000" stroke-miterlimit="10" fill="none"/><path d="M227.754 169.762m2.766 1.16l.23-1.02m2.535 2.176l.46-2.03m2.31 3.19l.687-3.05m2.078 4.21l.918-4.066m1.848 5.227l1.148-5.087m1.62 6.246l1.38-6.107m1.387 7.266l1.61-7.122m1.157 8.277l1.84-8.137m-.145 8.848l1.977-8.758" stroke="#000" stroke-miterlimit="10" fill="none"/><path d="M229.195 144.36l-6.88-24.497" stroke-width="1.2" stroke="#000" stroke-miterlimit="10" fill="none"/><path d="M229.195 144.36l25.782 1.706-.973-8.925zm0 0"/><path d="M222.316 119.863L207.852 98.93M215.94 121.172l-11.565-16.746M207.852 98.93l-20.477-15.102M187.375 83.828l-24.27-7.637M166.07 76.61l1.77-12.598" stroke-width="1.2" stroke="#000" stroke-miterlimit="10" fill="none"/><path d="M167.84 64.012l1.77-12.598" stroke-width="1.2" stroke="#f00" stroke-miterlimit="10" fill="none"/><path d="M160.14 75.777l1.77-12.597" stroke-width="1.2" stroke="#000" stroke-miterlimit="10" fill="none"/><path d="M161.91 63.18l1.77-12.602" stroke-width="1.2" stroke="#f00" stroke-miterlimit="10" fill="none"/><path d="M163.105 76.19l-12.714.33" stroke-width="1.2" stroke="#000" stroke-miterlimit="10" fill="none"/><path d="M150.39 76.52l-12.718.332" stroke-width="1.2" stroke="#00f" stroke-miterlimit="10" fill="none"/><path d="M162.645 45.496h8v11h-8zm0 0" fill="#fff"/><use xlink:href="#a" x="162.645" y="54.159" fill="#f00"/><path d="M137.672 76.852l-11.922 4.44" stroke-width="1.2" stroke="#00f" stroke-miterlimit="10" fill="none"/><path d="M125.75 81.293l-11.922 4.437" stroke-width="1.2" stroke="#000" stroke-miterlimit="10" fill="none"/><path d="M130.672 71.352h14v11h-14zm0 0" fill="#fff"/><g fill="#00f"><use xlink:href="#b" x="130.672" y="80.015"/><use xlink:href="#c" x="137.649" y="80.015"/></g><path d="M113.828 85.73L94.16 101.875" stroke-width="1.2" stroke="#000" stroke-miterlimit="10" fill="none"/><path d="M113.828 85.73m-1.02-2.82l-.906.52m-.117-3.34l-1.805 1.04m.786-3.86l-2.71 1.558m1.69-4.38l-3.617 2.08m2.593-4.9l-4.52 2.6m3.5-5.423l-5.422 3.12m4.404-5.94l-6.33 3.64m5.306-6.46l-7.23 4.16m6.605-5.888l-7.78 4.477" stroke="#000" stroke-miterlimit="10" fill="none"/><path d="M96.133 99.62l-9.582-8.37" stroke-width="1.2" stroke="#000" stroke-miterlimit="10" fill="none"/><path d="M86.55 91.25l-9.577-8.37" stroke-width="1.2" stroke="#f00" stroke-miterlimit="10" fill="none"/><path d="M92.19 104.13l-9.577-8.372" stroke-width="1.2" stroke="#000" stroke-miterlimit="10" fill="none"/><path d="M82.613 95.758l-9.578-8.37" stroke-width="1.2" stroke="#f00" stroke-miterlimit="10" fill="none"/><path d="M94.16 101.875L87.48 112.7" stroke-width="1.2" stroke="#000" stroke-miterlimit="10" fill="none"/><path d="M87.48 112.7l-6.68 10.827" stroke-width="1.2" stroke="#f00" stroke-miterlimit="10" fill="none"/><path d="M67.004 79.633h8v11h-8zm0 0" fill="#fff"/><use xlink:href="#a" x="67.004" y="88.296" fill="#f00"/><path d="M80.8 123.527l-2.8 12.41" stroke-width="1.2" stroke="#f00" stroke-miterlimit="10" fill="none"/><path d="M78 135.938l-2.805 12.406" stroke-width="1.2" stroke="#000" stroke-miterlimit="10" fill="none"/><path d="M76.8 118.027h8v11h-8zm0 0" fill="#fff"/><use xlink:href="#a" x="76.801" y="126.69" fill="#f00"/><path d="M75.195 148.344l2.758 25.293" stroke-width="1.2" stroke="#000" stroke-miterlimit="10" fill="none"/><path d="M77.953 173.637m-2.984.297l.28 1.004m-3.27-.704l.567 2.008m-3.55-1.71l.847 3.01m-3.832-2.714l1.13 4.016m-4.115-3.72l1.41 5.02m-4.398-4.722l1.694 6.023m-4.68-5.726l1.977 7.026m-4.96-6.73l2.258 8.03m-4.086-7.847l2.43 8.644" stroke="#000" stroke-miterlimit="10" fill="none"/><path d="M53.457 180.52l-9.102-8.887" stroke-width="1.2" stroke="#f00" stroke-miterlimit="10" fill="none"/><path d="M44.355 171.633l-9.105-8.883" stroke-width="1.2" stroke="#000" stroke-miterlimit="10" fill="none"/><path d="M49.457 175.02h8v11h-8zm0 0" fill="#fff"/><use xlink:href="#a" x="49.457" y="183.683" fill="#f00"/><path d="M254.492 141.602l5.13-11.64" stroke-width="1.2" stroke="#f00" stroke-miterlimit="10" fill="none"/><path d="M259.62 129.96l5.13-11.64" stroke-width="1.2" stroke="#000" stroke-miterlimit="10" fill="none"/><path d="M250.492 136.102h8v11h-8zm0 0" fill="#fff"/><use xlink:href="#a" x="250.492" y="144.765" fill="#f00"/></g></svg>
